MonoIcons/scalable/status/audio-volume-overamplified-symbolic-rtl.svg

<?xml version="1.0" encoding="UTF-8"?>
<svg height="16px" viewBox="0 0 16 16" width="16px" xmlns="http://www.w3.org/2000/svg">
    <path d="m 9 1.007812 c 0.296875 -0.003906 0.578125 0.125 0.769531 0.351563 l 3.230469 3.640625 h 1 c 1.09375 0 2 0.84375 2 2 v 2 c 0 1.089844 -0.910156 2 -2 2 h -1 l -3.230469 3.640625 c -0.210937 0.253906 -0.492187 0.363281 -0.769531 0.359375 z m -6.460938 0.960938 c 0.191407 -0.003906 0.386719 0.054688 0.558594 0.167969 c 0.457032 0.3125 0.578125 0.933593 0.269532 1.390625 c -1.824219 2.707031 -1.824219 6.238281 0 8.945312 c 0.308593 0.457032 0.1875 1.078125 -0.269532 1.390625 c -0.457031 0.308594 -1.078125 0.1875 -1.390625 -0.269531 c -1.136719 -1.691406 -1.707031 -3.640625 -1.707031 -5.59375 s 0.570312 -3.902344 1.707031 -5.59375 c 0.195313 -0.285156 0.511719 -0.4375 0.832031 -0.4375 z m 3.421876 2.019531 c 0.222656 -0.007812 0.453124 0.058594 0.644531 0.203125 c 0.261719 0.199219 0.394531 0.5 0.394531 0.804688 v 0.058594 c -0.011719 0.191406 -0.074219 0.375 -0.199219 0.535156 c -1.074219 1.429687 -1.074219 3.390625 0 4.816406 c 0.125 0.164062 0.1875 0.347656 0.199219 0.535156 v 0.0625 c 0 0.304688 -0.132812 0.605469 -0.394531 0.804688 c -0.441407 0.332031 -1.066407 0.242187 -1.398438 -0.199219 c -0.804687 -1.066406 -1.207031 -2.335937 -1.207031 -3.609375 s 0.402344 -2.542969 1.207031 -3.613281 c 0.183594 -0.246094 0.464844 -0.382813 0.753907 -0.398438 z m 0 0" fill="#2e3436"/>
</svg>

<svg width="16" height="16" viewBox="0 0 16 16" fill="none" xmlns="http://www.w3.org/2000/svg">
<g clip-path="url(#clip0_231_1249)">
<path d="M9.00001 1.00765C9.29688 1.00375 9.57814 1.13265 9.76954 1.35922L13 4.99985H14C15.0938 4.99985 16 5.8436 16 6.99985V8.99985C16 10.0897 15.0899 10.9999 14 10.9999H13L9.76954 14.6405C9.5586 14.8944 9.27735 15.0038 9.00001 14.9999V1.00765ZM2.53906 1.96859C2.73047 1.96469 2.92578 2.02328 3.09766 2.13656C3.55469 2.44906 3.67578 3.07016 3.36719 3.52719C1.54297 6.23422 1.54297 9.76548 3.36719 12.4725C3.67578 12.9295 3.55469 13.5506 3.09766 13.8631C2.64063 14.1717 2.01953 14.0506 1.70703 13.5936C0.570313 11.9022 0 9.95298 0 7.99985C0 6.04672 0.570313 4.0975 1.70703 2.40609C1.90235 2.12094 2.21875 1.96859 2.53906 1.96859V1.96859ZM5.96094 3.98813C6.1836 3.98031 6.41407 4.04672 6.60548 4.19125C6.8672 4.39047 7.00001 4.69125 7.00001 4.99594V5.05453C6.98829 5.24594 6.92579 5.42954 6.80079 5.58969C5.72657 7.01938 5.72657 8.98032 6.80079 10.4061C6.92579 10.5702 6.98829 10.7538 7.00001 10.9413V11.0038C7.00001 11.3084 6.8672 11.6092 6.60548 11.8084C6.16407 12.1405 5.53907 12.0506 5.20704 11.6092C4.40235 10.5428 4 9.27329 4 7.99985C4 6.72641 4.40235 5.45688 5.20704 4.38657C5.39063 4.14047 5.67188 4.00375 5.96094 3.98813V3.98813Z" fill="#2E3436"/>
</g>
<defs>
<clipPath id="clip0_231_1249">
<rect width="16" height="16" fill="white"/>
</clipPath>
</defs>
</svg>
